X:1
T:Title
%%score { 1 | 2 }
L:1/8
M:4/4
K:Ab
V:1 treble nm="Grand Piano"
V:2 bass 
V:1
 z4 z2[Q:1/4=100] [A,C][B,D] | [CE][CE][DF][_C=D] [=CE]2 [CA][_DB] | %2
 [Ec][Ec][Fd][DB] [Ec]2 [CE][B,D] | [A,C][CE][CA][DB] [Ec][DB][CA][Ec] | c2 B4 C[B,D] | %5
 [CE][CE][DF][_C=D] [=CE]2 [_DB][Ec] |[M:9/8] [_Ge][Fd][FA] [FB] [=Ec]2- [Ec][C_E][B,D] | %7
[M:4/4] [A,C][CE][CA][DB] [Ec][CE][CA][Ec] |[M:3/4] [DB]2 [CA]4 |[M:1/4] [CE][CE] | %10
[M:4/4] FFFF F[FA][EG][DF] | [DF]2 [CE]4 GA | B2 B4 AB | [Ec]2 [Ec]4 [Ec][DB] | %14
 [CA][CA]FA E2 [Ec][DB] | [CA][CA]FA E2 [CE][B,D] | [A,C][CE][CA][DB] [Ec][CE][CA][Ec] | %17
[M:3/4] [DB]2 [CA]4 |] %18
V:2
 z4 z2 [A,,E,][A,,E,] | [A,,A,][A,,A,][A,,A,][A,,A,] [A,,A,]2 [A,,E,][A,,E,] | %2
 [A,,A,][A,,A,][A,,A,][A,,A,] [A,,A,]2 [A,,A,][A,,E,] | %3
 [A,,E,][A,,E,][A,,E,][A,,E,] [A,,A,][A,,A,][A,,A,][A,,A,] | [E,A,E]2 [E,G,E]4 [A,,E,A,][A,,E,] | %5
 [A,,A,][A,,A,][A,,A,][A,,A,] [A,,A,]2 [A,,A,][A,,A,] | %6
[M:9/8] [C,A,][D,A,][D,A,] [D,F,] [C,G,]2- [C,G,][A,,A,][A,,A,] | %7
[M:4/4] [A,,E,][A,,E,][A,,E,][A,,E,] [A,,A,][A,,A,][A,,A,][A,,A,] |[M:3/4] [E,G,]2 [A,,A,]4 | %9
[M:1/4] [A,,A,][A,,A,] |[M:4/4] [D,A,D][D,A,D][D,A,D][D,A,D] [D,A,D][D,A,][D,A,][D,A,] | %11
 [A,,A,]2 [A,,A,]4 [E,B,E][E,A,E] | [E,G,E]2 [E,G,D]4 [E,A,C][E,G,D] | %13
 [A,,A,]2 [A,,A,]4 [A,,A,][A,,A,] | [A,,A,][A,,A,][D,A,D][F,A,D] [A,C]2 [A,,A,][A,,A,] | %15
 [A,,A,][A,,A,][D,A,D][F,A,D] [A,C]2 [A,,A,][A,,E,] | %16
 [A,,E,][A,,A,][A,,A,][A,,G,] [A,,A,][A,,A,][A,,A,][A,,A,] |[M:3/4] [E,G,]2 [A,,A,]4 |] %18

